X:10933
T:Miss McLeod's 
T:Mrs. MacLeod of Raasay
T:Miss McCloud's
T:Hop High Ladies
N:transcribed by Alan Ng
R:reel
S:as played by Joe Shannon \& Johnny McGreevy on The Noonday Feast
D:Green Linnet CSIF 1023
Z:transcribed by Alan Ng agng@students.wisc.edu February 28, 1997 id:ng-reels-18
E:10
M:C|
K:G
BA|:G2 BG dGBG|GB{c}BA BcBA|G2 BG dGBG|A ~F3 ABcA|G2 BG dGBG|\
GB{c}BA Bc~d2|egfa gbaf|1gedB AcBA:|2gedB ABde||\
~g3g efge|B2 BA Bdef|~g3f efge|A2 AG ABcA|G2 gf efge|\
B2 BA Bc~d2|egfa gbaf|gedB AcBA:|**
